X:1
T:Title
%%score { 1 | 2 }
L:1/8
M:4/4
K:Bb
V:1 treble nm="Grand Piano"
V:2 bass 
V:1
 z4 z2[Q:1/4=84] [DB][FA] | G2 EG [GB]2 [FA][EG] | [DF]2 [B,D]4 [EG][DF] | E2 CE G2 F>E | %4
 D6 [DB][FA] | G2 EG [GB]2 [FA][EG] | [DF]2 [DB]4 [CFc][Fd] | [Ee]2 [Fd][Gc] G3 A |[M:3/4] [DB]6 |] %9
V:2
 z4 z2 [B,,B,][D,B,] | [E,B,E]2 [E,G,][E,B,E] [E,E]2 [E,E][E,B,] | %2
 [B,,B,]2 [B,,F,]4 [B,,B,][B,,B,] | [F,A,C]2 [F,A,][F,A,C] [F,CE]2 [F,A,D]>[F,A,C] | %4
 [B,,F,B,]6 [B,,B,][D,B,] | [E,B,E]2 [E,G,][E,B,E] [E,E]2 [E,E][E,B,] | %6
 [B,,B,]2 [B,,F,]4 A,,[B,,B,] | [C,G,]2 [D,=B,][E,C] [F,CE]3 [F,E] |[M:3/4] [B,,F,]6 |] %9

